svg/business/ad_rectangle_line.svg

<svg xmlns="http://www.w3.org/2000/svg" width="24" height="24" viewBox="0 0 24 24"><g fill="none" fill-rule="evenodd"><path d="M24,0 L24,24 L0,24 L0,0 L24,0 Z M12.5935,23.2578 L12.5819,23.2595 L12.5109,23.295 L12.4919,23.2987 L12.4767,23.295 L12.4057,23.2595 C12.3958,23.2564 12.387,23.259 12.3821,23.2649 L12.378,23.2758 L12.3609,23.7031 L12.3659,23.7235 L12.3769,23.7357 L12.4805,23.8097 L12.4953,23.8136 L12.5071,23.8097 L12.6107,23.7357 L12.6233,23.7197 L12.6267,23.7031 L12.6096,23.2758 C12.6076,23.2657 12.601,23.2593 12.5935,23.2578 Z M12.8584,23.1453 L12.8445,23.1473 L12.6598,23.2397 L12.6499,23.2499 L12.6472,23.2611 L12.6651,23.6906 L12.6699,23.7034 L12.6784,23.7105 L12.8793,23.8032 C12.8914,23.8069 12.9022,23.803 12.9078,23.7952 L12.9118,23.7812 L12.8777,23.1665 C12.8753,23.1546 12.8674,23.147 12.8584,23.1453 Z M12.143,23.1473 C12.1332,23.1424 12.1222,23.1453 12.1156,23.1526 L12.1099,23.1665 L12.0758,23.7812 C12.0751,23.7927 12.0828,23.8019 12.0926,23.8046 L12.1083,23.8032 L12.3092,23.7105 L12.3186,23.7024 L12.3225,23.6906 L12.3404,23.2611 L12.3372,23.2485 L12.3278,23.2397 L12.143,23.1473 Z"/><path fill="#09244B" d="M19,4 C20.597725,4 21.903664,5.24892392 21.9949075,6.82372764 L22,7 L22,17 C22,18.597725 20.7511226,19.903664 19.1762773,19.9949075 L19,20 L5,20 C3.40232321,20 2.09633941,18.7511226 2.00509271,17.1762773 L2,17 L2,7 C2,5.40232321 3.24892392,4.09633941 4.82372764,4.00509271 L5,4 L19,4 Z M19,6 L5,6 C4.48716857,6 4.06449347,6.38604429 4.0067278,6.88337975 L4,7 L4,17 C4,17.51285 4.38604429,17.9355092 4.88337975,17.9932725 L5,18 L19,18 C19.51285,18 19.9355092,17.613973 19.9932725,17.1166239 L20,17 L20,7 C20,6.44772 19.5523,6 19,6 Z M9.21922,8 C10.0830129,8 10.8423862,8.55327003 11.1143184,9.36064287 L11.1595,9.51493 L12.4701,14.7575 C12.6041,15.2933 12.2783,15.8362 11.7425,15.9701 C11.2449714,16.0945286 10.7413209,15.8224969 10.5647014,15.354009 L10.5299,15.2425 L10.2192,14 L7.78078,14 L7.47014,15.2425 C7.33619,15.7783 6.79326,16.1041 6.25746,15.9701 C5.75994071,15.8457643 5.44351872,15.3687704 5.50810181,14.8722713 L5.52986,14.7575 L6.84049,9.51493 C7.04998647,8.67696294 7.77092488,8.07440073 8.62014206,8.00641059 L8.78078,8 L9.21922,8 Z M18,8 C18.51285,8 18.9355092,8.38604429 18.9932725,8.88337975 L19,9 L19,15 C19,15.51285 18.613973,15.9355092 18.1166239,15.9932725 L18,16 L16,16 C14.3431,16 13,14.6569 13,13 C13,11.3431 14.3431,10 16,10 C16.28048,10 16.552,10.038528 16.8095424,10.1105152 L17,10.1707 L17,9 C17,8.44772 17.4477,8 18,8 Z M16,12 C15.4477,12 15,12.4477 15,13 C15,13.51285 15.386027,13.9355092 15.8833761,13.9932725 L16,14 L17,14 L17,13 C17,12.4477 16.5523,12 16,12 Z M9.21922,10 L8.78078,10 L8.28078,12 L9.71922,12 L9.21922,10 Z"/></g></svg>

<svg xmlns="http://www.w3.org/2000/svg" width="24" height="24"><g fill="none" fill-rule="evenodd"><path d="M24 0v24H0V0zM12.594 23.258l-.012.002-.071.035-.02.004-.014-.004-.071-.036c-.01-.003-.019 0-.024.006l-.004.01-.017.428.005.02.01.013.104.074.015.004.012-.004.104-.074.012-.016.004-.017-.017-.427c-.002-.01-.009-.017-.016-.018m.264-.113-.014.002-.184.093-.01.01-.003.011.018.43.005.012.008.008.201.092c.012.004.023 0 .029-.008l.004-.014-.034-.614c-.003-.012-.01-.02-.02-.022m-.715.002a.023.023 0 0 0-.027.006l-.006.014-.034.614c0 .012.007.02.017.024l.015-.002.201-.093.01-.008.003-.011.018-.43-.003-.012-.01-.01z"/><path fill="#09244B" d="M19 4a3 3 0 0 1 2.995 2.824L22 7v10a3 3 0 0 1-2.824 2.995L19 20H5a3 3 0 0 1-2.995-2.824L2 17V7a3 3 0 0 1 2.824-2.995L5 4zm0 2H5a1 1 0 0 0-.993.883L4 7v10a1 1 0 0 0 .883.993L5 18h14a1 1 0 0 0 .993-.883L20 17V7a1 1 0 0 0-1-1M9.22 8a2 2 0 0 1 1.894 1.36l.045.155 1.311 5.243a1 1 0 0 1-1.905.596l-.035-.111L10.22 14H7.78l-.31 1.242a1 1 0 0 1-1.962-.37l.022-.114 1.31-5.243a2 2 0 0 1 1.78-1.509L8.78 8zM18 8a1 1 0 0 1 .993.883L19 9v6a1 1 0 0 1-.883.993L18 16h-2a3 3 0 1 1 .81-5.89l.19.06V9a1 1 0 0 1 1-1m-2 4a1 1 0 0 0-.117 1.993L16 14h1v-1a1 1 0 0 0-1-1m-6.78-2h-.44l-.5 2h1.44z"/></g></svg>
